web/workspace/public/assets/products/dadi-visualize-bg.svg

<svg viewBox="0 0 139.07 157.31" xmlns="http://www.w3.org/2000/svg"><path d="m75.54 155.7 57.53-33.29a12 12 0 0 0 6-10.39v-93.53a12 12 0 0 0 -6-10.39l-11.24-6.49a12 12 0 0 0 -12 0l-34.28 19.87a12 12 0 0 1 -12 0l-34.29-19.86a12 12 0 0 0 -12 0l-11.26 6.48a12 12 0 0 0 -6 10.39v93.51a12 12 0 0 0 6 10.39l57.53 33.31a12 12 0 0 0 12.01 0zm40.28-50.18-46.29 26.84-46.28-26.84v-80.52l23 13.42v53.68l23.25 13.42h.07.07l23.22-13.42v-53.69l23-13.42z" fill="#f1f1f1"/></svg>

<svg id="Layer_1" data-name="Layer 1" xmlns="http://www.w3.org/2000/svg" viewBox="0 0 139.07 157.31"><defs><style>.cls-1{fill:#f1f1f1;}</style></defs><title>Artboard 41</title><path class="cls-1" d="M75.54,155.7l57.53-33.29a12,12,0,0,0,6-10.39V18.49a12,12,0,0,0-6-10.39L121.83,1.61a12,12,0,0,0-12,0L75.55,21.48a12,12,0,0,1-12,0L29.26,1.62a12,12,0,0,0-12,0L6,8.1A12,12,0,0,0,0,18.49V112a12,12,0,0,0,6,10.39L63.53,155.7A12,12,0,0,0,75.54,155.7Zm40.28-50.18L69.53,132.36,23.25,105.52V25l23,13.42V92.1l23.25,13.42h0l.07,0,.07,0h0L92.86,92.1V38.41l23-13.42Z"/></svg>
